X: 21421
M: 6/8
L: 1/8
K: G
d2c A3- | A2A A2A | cBA Gzb | agf edc |\
d2c A3 | A2A A2A | cBA Gzg | AzA AzA |\
cBA GzD | D3 DDD | D3- D2g | AzA AzA |\
cBA GzB | B3- B^AF | B3- B2B | A3 d3 |
d3 g3 | gfe edc | B(ed) B(ed) | A3 d3 |\
d3 g3 | g2d dcA | xed G(ed) & G2z xz2 | A3 d3 |\
d3 g3 | gfe edc | Bed Bed | A3 d3 |
d3 g3 | g2d dcA | G2z z2D | D3- DDG |\
cBA G2D | D3 DDD | D2z z2g | A2A A2A |
cBA G2B | B3- B^AF | B3 B2B | A3 d3 |\
d3 g3 | gfe edc | Bed Bed | A3 d3 |\
d3 g3 | g2d dcA | xed G(ed) & G2z x2B |
d3 g3 | gfe edc | Bed Bed | A2-A/B//c// d2-d/e//d// |\
d2-d/e//f// g3 | g2d dcA | G2z f2z | g2z z2 H|]



